X:411
T:Gazaremsan
R:Polska
O:Gästrikland
S:efter Lörk-Olle
N:Från Stensätra Sandviken
M:3/4
L:1/16
K:Dm
A2B^c dcde fefg|a3g e2f2 d2^c2|A2B^c dcde fefa|g2f2 f2e2 e4:|
K:D
|:A2d2 d2c2 c2B2|B3A GFGB A4|D3E F4 F4|E3D CDEF D4-|
D2d2- d2c2 c2B2|B3A GFGB A4|A2Bc dcde =fefg|a2c2 d8:|
(:musicend:)

(:music:)

